src/images/springload.svg

<svg height="23" viewBox="0 0 67 30" width="51.37" xmlns="http://www.w3.org/2000/svg" xmlns:xlink="http://www.w3.org/1999/xlink"><defs><path id="a" d="m40.865.64c-6.897-.01-12.495 5.549-12.495 12.409v.37h-.006v2.413c0 3.5-3.186 7.412-7.45 7.412a7.457 7.457 0 0 1 -6.237-3.366 10.354 10.354 0 0 0 6.14-9.483 10.367 10.367 0 0 0 -10.409-10.395 10.367 10.367 0 0 0 -10.408 10.394c0 4.724 3.114 8.688 7.428 9.96 1.902 5.601 7.222 9.646 13.486 9.646 7.588 0 14.244-5.632 14.244-13.849v-1.221c4.004 2.427 6.52 2.97 10.031 2.97 11.279-.002 19.003-9.673 21.811-17.217l-26.135-.042zm-30.453 5.609c2.245 0 4.04 1.881 4.04 4.146 0 2.264-1.795 4.146-4.04 4.146-2.277 0-4.008-1.882-4.008-4.146 0-2.265 1.731-4.146 4.008-4.146z"/><mask id="b" fill="#fff"><use fill="#fff" fill-rule="evenodd" xlink:href="#a"/></mask></defs><g fill="none" fill-rule="evenodd"><use fill="#000" xlink:href="#a"/><g fill="#fff" mask="url(#b)"><path d="m0 0h67v30h-67z"/></g></g></svg>

<svg xmlns="http://www.w3.org/2000/svg" xmlns:xlink="http://www.w3.org/1999/xlink" width="51.37" height="23" viewBox="0 0 67 30">
    <defs>
        <path id="a" d="M40.865.64C33.968.63 28.37 6.189 28.37 13.049v.37h-.006v2.413c0 3.5-3.186 7.412-7.45 7.412a7.457 7.457 0 0 1-6.237-3.366 10.354 10.354 0 0 0 6.14-9.483A10.367 10.367 0 0 0 10.408 0 10.367 10.367 0 0 0 0 10.394c0 4.724 3.114 8.688 7.428 9.96C9.33 25.955 14.65 30 20.914 30c7.588 0 14.244-5.632 14.244-13.849V14.93c4.004 2.427 6.52 2.97 10.031 2.97C56.468 17.898 64.192 8.227 67 .683L40.865.641zM10.412 6.249c2.245 0 4.04 1.881 4.04 4.146 0 2.264-1.795 4.146-4.04 4.146-2.277 0-4.008-1.882-4.008-4.146 0-2.265 1.731-4.146 4.008-4.146z"/>
    </defs>
    <g fill="none" fill-rule="evenodd">
        <mask id="b" fill="#fff">
            <use xlink:href="#a"/>
        </mask>
        <use fill="#000" xlink:href="#a"/>
        <g fill="#FFF" mask="url(#b)">
            <path d="M0 0h67v30H0z"/>
        </g>
    </g>
</svg>
